X: 21
T: Cooley's
Z: lusoceltibero
S: https://thesession.org/tunes/1#setting49708
R: reel
M: 4/4
L: 1/8
K: Edor
|:ED|"Em"EBBA B2 EB|"Em"B2 AB dBAG|"D"F/E/D AD BDAD|"D"F/E/D AD BAGF|
"C"EBBA B2 EB|"C" B2 AB defg|"C" afec dBAF|"C"DEFD E2 "D":|
|:gf|"C"eB B/B/B eBgB|"C"eB B/B/B gedB|"D"A2 FA DAFA|"D"A2 FA defg|
"Em"eB B/B/B eBgf|"Em"eB B/B/B defg|"D"afec dBAF|"D"DEFD E2:|

